Frontend/src/assets/zenithLogo.svg

<svg width="509" height="182" viewBox="0 0 509 182" fill="none" xmlns="http://www.w3.org/2000/svg">
<path fill-rule="evenodd" clip-rule="evenodd" d="M156.922 48.1071C165.543 47.7623 173.388 48.9693 180.889 51.9005C183.13 49.8314 187.872 44.5724 188.303 36.727C188.476 32.8474 187.441 28.7953 186.148 25.7778C186.053 25.537 185.958 25.3001 185.865 25.0664C184.523 21.7027 183.439 18.9869 184.165 14.3114C177.268 16.8979 176.32 22.1569 176.32 22.1569C176.32 22.1569 172.699 4.91417 159.594 0C167.993 17.118 153.162 24.662 147.948 27.3145C147.542 27.5209 147.195 27.6976 146.921 27.847C130.368 36.3821 132.351 50.3487 133.299 53.711C141.403 49.659 148.99 48.3658 156.922 48.1071ZM60.7805 41.8099L0 179.234H105.698V152.508H44.1413L104.663 15.0837H16.8979L4.91417 41.8099H60.7805ZM367.27 36.3829C367.27 41.2109 365.46 45.1767 361.925 48.539C358.39 51.9014 354.08 53.5394 349.165 53.5394C344.251 53.5394 339.941 51.9014 336.406 48.539C332.871 45.2629 331.061 41.2109 331.061 36.3829C331.061 31.6412 332.871 27.5891 336.406 24.313C339.941 21.0369 344.251 19.4851 349.165 19.4851C354.08 19.4851 358.39 21.1231 361.925 24.313C365.46 27.5891 367.27 31.6412 367.27 36.3829ZM334.251 61.211V179.237H365.202V56.9866L334.251 61.211ZM175.528 83.6236C179.752 88.2791 181.821 95.1762 181.821 104.401L130.352 111.384C130.696 99.918 133.369 91.2966 138.456 85.4341C143.542 79.6578 150.181 76.7265 158.371 76.7265C165.613 76.7265 171.389 79.0543 175.528 83.6236ZM211.823 114.919V109.833C211.823 101.556 210.703 93.9692 208.461 87.3308C206.047 80.5199 202.685 74.6574 198.202 69.7432C193.719 64.829 188.287 61.0357 181.735 58.363C175.183 55.6904 167.682 54.3972 159.233 54.3972C150.267 54.3972 142.335 55.9491 135.266 59.0527C128.196 62.1564 122.248 66.5533 117.42 72.2434C112.592 77.9335 108.884 84.6582 106.298 92.4174C103.712 100.177 102.418 108.712 102.418 118.109C102.418 127.506 103.712 136.128 106.384 143.973C109.057 151.818 112.936 158.543 118.196 164.233C123.455 169.837 129.834 174.234 137.507 177.338C145.18 180.441 154.06 181.993 164.234 181.993C173.114 181.993 181.649 181.131 189.667 179.493C197.684 177.769 204.237 175.7 209.409 173.113L200.529 150.008C196.133 152.25 190.874 154.06 184.839 155.526C178.717 156.991 172.596 157.681 166.389 157.681C157.25 157.681 149.663 155.526 143.629 151.129C137.594 146.732 133.886 140.007 132.507 130.955L211.392 120.264C211.651 118.454 211.823 116.643 211.823 114.919ZM291.227 179.235V98.7976C291.227 92.5902 289.416 87.7623 285.795 84.3137C282.174 80.8652 276.743 79.1409 269.673 79.1409C266.052 79.1409 262.604 79.3995 259.328 80.0892C256.052 80.6927 253.379 81.3825 251.224 82.1584V179.407H220.273V63.1914C226.739 60.605 233.981 58.5359 241.913 56.8116C249.844 55.1735 258.897 54.3114 268.984 54.3114C287.261 54.3114 300.71 57.8461 309.245 65.0019C317.78 72.0714 322.091 82.3308 322.091 95.6077V179.235H291.227ZM458.648 150.877C463.476 147.859 467.441 143.807 470.545 138.548C473.649 133.289 476.063 127.168 477.615 120.099C478.822 114.667 479.598 109.063 479.856 103.115L454.854 100.959L459.768 112.684L404.247 105.529C404.592 110.615 405.195 115.443 406.23 120.099C407.695 127.168 410.109 133.376 413.299 138.548C416.489 143.721 420.455 147.859 425.197 150.877C429.852 153.981 435.456 155.446 441.836 155.446C448.302 155.446 453.82 153.894 458.648 150.877ZM413.299 55.7833C410.109 60.9562 407.782 67.1635 406.23 74.233C404.678 81.3888 403.988 88.9756 403.902 97.1658L439.422 92.3379L435.887 84.2338L478.391 78.3713C478.276 77.3942 478.084 76.4938 477.892 75.5934C477.797 75.1432 477.701 74.6929 477.615 74.233C476.063 67.1635 473.649 60.9562 470.545 55.7833C467.441 50.6105 463.476 46.4723 458.648 43.4548C453.82 40.3511 448.216 38.8855 441.836 38.8855C435.456 38.8855 429.939 40.4373 425.197 43.4548C420.455 46.4723 416.489 50.6105 413.299 55.7833ZM492.012 37.3336C497.702 45.0067 501.927 54.0591 504.772 64.3185C507.617 74.5779 508.996 85.527 508.996 97.1658C508.996 108.805 507.617 119.754 504.772 130.013C501.927 140.273 497.702 149.325 492.012 156.998C486.322 164.757 479.339 170.792 470.976 175.275C462.7 179.758 452.958 182 441.922 182C430.887 182 421.231 179.758 412.868 175.275C404.506 170.792 397.522 164.671 391.918 156.998C386.314 149.239 382.09 140.273 379.245 130.013C376.4 119.754 375.021 108.805 375.021 97.1658C375.021 85.527 376.4 74.5779 379.245 64.3185C382.09 54.0591 386.314 45.0067 391.918 37.3336C397.522 29.5744 404.506 23.5395 412.868 19.0564C421.145 14.5733 430.887 12.3317 441.922 12.3317C452.958 12.3317 462.613 14.5733 470.976 19.0564C479.339 23.5395 486.322 29.6606 492.012 37.3336Z" fill="#CF003D"/>
</svg>

<svg xmlns="http://www.w3.org/2000/svg" width="509" height="182" fill="none" viewBox="0 0 509 182"><path fill="#cf003d" fill-rule="evenodd" d="M156.922 48.107c8.621-.345 16.466.862 23.967 3.794 2.241-2.07 6.983-7.329 7.414-15.174.173-3.88-.862-7.932-2.155-10.95l-.283-.71c-1.342-3.364-2.426-6.08-1.7-10.756-6.897 2.587-7.845 7.846-7.845 7.846S172.699 4.914 159.594 0c8.399 17.118-6.432 24.662-11.646 27.315-.406.206-.753.383-1.027.532-16.553 8.535-14.57 22.502-13.622 25.864 8.104-4.052 15.691-5.345 23.623-5.604M60.781 41.81 0 179.234h105.698v-26.726H44.141l60.522-137.424H16.898L4.914 41.81zm306.489-5.427c0 4.828-1.81 8.794-5.345 12.156s-7.845 5-12.76 5c-4.914 0-9.224-1.638-12.759-5-3.535-3.276-5.345-7.328-5.345-12.156 0-4.742 1.81-8.794 5.345-12.07s7.845-4.828 12.759-4.828 9.225 1.638 12.76 4.828c3.535 3.276 5.345 7.328 5.345 12.07M334.251 61.21v118.026h30.951V56.987zM175.528 83.624c4.224 4.655 6.293 11.552 6.293 20.777l-51.469 6.983c.344-11.466 3.017-20.087 8.104-25.95 5.086-5.776 11.725-8.707 19.915-8.707 7.242 0 13.018 2.327 17.157 6.897m36.295 31.295v-5.086c0-8.277-1.12-15.864-3.362-22.502-2.414-6.811-5.776-12.674-10.259-17.588s-9.915-8.707-16.467-11.38-14.053-3.966-22.502-3.966c-8.966 0-16.898 1.552-23.967 4.656q-10.605 4.655-17.846 13.19-7.243 8.535-11.122 20.174c-2.586 7.76-3.88 16.295-3.88 25.692s1.294 18.019 3.966 25.864 6.552 14.57 11.812 20.26c5.259 5.604 11.638 10.001 19.311 13.105 7.673 3.103 16.553 4.655 26.727 4.655 8.88 0 17.415-.862 25.433-2.5 8.017-1.724 14.57-3.793 19.742-6.38l-8.88-23.105c-4.396 2.242-9.655 4.052-15.69 5.518-6.122 1.465-12.243 2.155-18.45 2.155-9.139 0-16.726-2.155-22.76-6.552q-9.053-6.596-11.122-20.174l78.885-10.691c.259-1.81.431-3.621.431-5.345m79.404 64.316V98.798q0-9.312-5.432-14.484c-3.621-3.449-9.052-5.173-16.122-5.173-3.621 0-7.069.258-10.345.948-3.276.604-5.949 1.293-8.104 2.07v97.248h-30.951V63.191c6.466-2.586 13.708-4.655 21.64-6.38 7.931-1.638 16.984-2.5 27.071-2.5 18.277 0 31.726 3.535 40.261 10.69 8.535 7.07 12.846 17.33 12.846 30.607v83.627zm167.421-28.358c4.828-3.018 8.793-7.07 11.897-12.329s5.518-11.38 7.07-18.449a97 97 0 0 0 2.241-16.984l-25.002-2.156 4.914 11.725-55.521-7.155c.345 5.086.948 9.914 1.983 14.57 1.465 7.069 3.879 13.277 7.069 18.449s7.156 9.311 11.898 12.329c4.655 3.104 10.259 4.569 16.639 4.569 6.466 0 11.984-1.552 16.812-4.569m-45.349-95.094c-3.19 5.173-5.517 11.38-7.069 18.45-1.552 7.156-2.242 14.743-2.328 22.933l35.52-4.828-3.535-8.104 42.504-5.863c-.115-.977-.307-1.877-.499-2.778-.095-.45-.191-.9-.277-1.36-1.552-7.07-3.966-13.277-7.07-18.45-3.104-5.172-7.069-9.31-11.897-12.328-4.828-3.104-10.432-4.57-16.812-4.57s-11.897 1.552-16.639 4.57c-4.742 3.017-8.708 7.156-11.898 12.328m78.713-18.45c5.69 7.674 9.915 16.726 12.76 26.986 2.845 10.259 4.224 21.208 4.224 32.847s-1.379 22.588-4.224 32.847-7.07 19.312-12.76 26.985c-5.69 7.759-12.673 13.794-21.036 18.277-8.276 4.483-18.018 6.725-29.054 6.725s-20.691-2.242-29.054-6.725-15.346-10.604-20.95-18.277c-5.604-7.759-9.828-16.725-12.673-26.985s-4.224-21.208-4.224-32.847 1.379-22.588 4.224-32.847 7.069-19.312 12.673-26.985c5.604-7.76 12.588-13.795 20.95-18.278 8.277-4.483 18.019-6.724 29.054-6.724s20.691 2.241 29.054 6.724 15.346 10.605 21.036 18.278" clip-rule="evenodd"/></svg>
